Papirus-Light/22x22/animations/nm-vpn-connecting04.svg

<?xml version="1.0" encoding="UTF-8" standalone="no"?>
<svg xmlns="http://www.w3.org/2000/svg" version="1.1" width="22" height="22">
 <defs>
  <linearGradient y2="5" x2="19" gradientTransform="matrix(0.97476,-0.22325,-0.22325,-0.97476,1.9814,25.376)" y1="12" gradientUnits="userSpaceOnUse" x1="7" id="linearGradient3605">
   <stop offset="0" stop-opacity=".5" stop-color="#5c616c"/>
   <stop offset="1" stop-opacity="0" stop-color="#5c616c"/>
  </linearGradient>
  <linearGradient y2="12" x2="17" gradientTransform="matrix(-0.97476,0.22325,0.22325,0.97476,20.018,-3.376)" y1="12" gradientUnits="userSpaceOnUse" x1="7" id="linearGradient3611">
   <stop offset="0" stop-color="#5c616c"/>
   <stop offset="1" stop-color="#5c616c" stop-opacity=".5"/>
  </linearGradient>
 </defs>
 <path d="M 10.84375 4 C 10.37875 4.0108 9.9086 4.0678812 9.4375 4.1757812 C 5.6692 5.0388813 3.3126813 8.7943 4.1757812 12.5625 L 6.1269531 12.117188 C 5.5104531 9.4256875 7.1914125 6.7432531 9.8828125 6.1269531 C 12.575012 5.5104531 15.257047 7.1929656 15.873047 9.8847656 C 16.163047 11.151966 18.112266 10.705 17.822266 9.4375 C 17.067266 6.1403 14.09875 3.9241 10.84375 4 z" style="fill:url(#linearGradient3611)"/>
 <path d="M 17.822266 9.4375 L 15.873047 9.8828125 C 15.95921 10.260002 15.977415 10.633295 15.970703 11.003906 C 15.980749 11.003804 15.98993 11 16 11 C 16.751553 11 17.427722 11.29384 17.951172 11.759766 C 18.035536 11.003549 18.002157 10.222159 17.822266 9.4375 z M 6.125 12.115234 L 4.1757812 12.5625 C 4.9958231 16.143435 8.4275531 18.437638 12 17.917969 L 12 15.894531 C 9.3477032 16.438065 6.7325776 14.768704 6.125 12.115234 z" style="fill:url(#linearGradient3605)"/>
 <path d="m16 12c-1.108 0-2 .91085-2 2.0312v.96875h-1v4h6v-4h-1v-.96875c0-1.12-.892-2.031-2-2.031zm0 1c.554 0 1 .4424 1 1v1h-2v-1c0-.5576.446-1 1-1z" fill="#5c616c"/>
</svg>

<?xml version="1.0" encoding="UTF-8" standalone="no"?>
<svg width="22" xmlns="http://www.w3.org/2000/svg" version="1.1" height="22">
 <defs>
  <linearGradient id="linearGradient3605" y2="5" gradientUnits="userSpaceOnUse" y1="12" gradientTransform="matrix(.97476 -.22325 -.22325 -.97476 1.9814 25.376)" x2="19" x1="7">
   <stop stop-opacity=".5" stop-color="#5c616c" offset="0"/>
   <stop stop-opacity="0" stop-color="#5c616c" offset="1"/>
  </linearGradient>
  <linearGradient id="linearGradient3611" y2="12" gradientUnits="userSpaceOnUse" y1="12" gradientTransform="matrix(-.97476 .22325 .22325 .97476 20.018 -3.376)" x2="17" x1="7">
   <stop stop-color="#5c616c" offset="0"/>
   <stop stop-color="#5c616c" stop-opacity=".5" offset="1"/>
  </linearGradient>
 </defs>
 <path style="fill:url(#linearGradient3611)" d="m10.844 4c-0.465 0.0108-0.9354 0.0679-1.4065 0.1758-3.7683 0.8631-6.1248 4.6185-5.2617 8.3862l1.9512-0.445c-0.6165-2.6913 1.0644-5.3737 3.7558-5.99 2.6922-0.6165 5.3742 1.066 5.9902 3.7578 0.29 1.2672 2.239 0.8202 1.949-0.4473-0.755-3.2972-3.723-5.5134-6.978-5.4375z"/>
 <path style="fill:url(#linearGradient3605)" d="m17.822 9.4375l-1.949 0.4453c0.086 0.3772 0.104 0.7502 0.098 1.1212 0.01 0 0.019-0.004 0.029-0.004 0.752 0 1.428 0.294 1.951 0.76 0.085-0.756 0.051-1.538-0.129-2.3225zm-11.697 2.6775l-1.9492 0.447c0.82 3.581 4.2518 5.876 7.8242 5.356v-2.023c-2.6523 0.543-5.2674-1.126-5.875-3.78z"/>
 <path d="m16 12c-1.108 0-2 0.91085-2 2.0312v0.96875h-1v4h6v-4h-1v-0.96875c0-1.12-0.892-2.031-2-2.031zm0 1c0.554 0 1 0.4424 1 1v1h-2v-1c0-0.5576 0.446-1 1-1z" fill="#5c616c"/>
</svg>
